!!!!SEGMENT: pl-sa--403-a-viii--002_ziegler--symphonia-ex-c-andante.krn
!!!cenid: 17xx:670
!!!COM: Ziegler
!!!COM-rismID: pe30003658
!!!CDT:
!!!CNT:
!!!OPR: Symphonia ex C
!!!OTL: Andante
!!!OMV: 002
!!!PDT:
!!!AGN: Secular
!!!SMS-siglum: PL-SA
!!!SMS-shelfmark: 403/A VIII
!!!SMS-shelfwork: 001-002 M
!!!SMS-variant:
!!!SMS-altvar:
!!!NIFC-rismSourceID: 1001035021
!!!NIFC-islandoraID:
!!!URL-pdf-islandora:
!!!URL-scan: https://bc.bdsandomierz.pl/dlibra/publication/1706/edition/1674/content @EN{Scan in the Sandomierz Diocese Digital Library} @PL{Skany w portalu Cyfrowa Biblioteka Diecezjalna w Sandomierzu}
!!!ONB-nifc: UWAGA: części Symphonii: Allegro molto, Andante, Presto
!!!AIN: 1 empty 1 viola 2 violn
!!!key:
**kern	**kern	**kern	**kern	**dynam
*part4	*part3	*part2	*part1	*part1
*staff4	*staff3	*staff2	*staff1	*
*Iempty	*Iviola	*Ivioln	*Ivioln	*
*I"Baſso.	*I"Alto Viola	*I"Violino Secondo	*I"Violino Primo	*
*I'bc	*I'a-vla	*I'vl 2	*I'vl 1	*
*group1	*group1	*group1	*group1	*
*clefF4	*clefC3	*clefG2	*clefG2	*
*k[]	*k[]	*k[]	*k[]	*
*a:	*a:	*a:	*a:	*
*M3/8	*M3/8	*M3/8	*M3/8	*
=1	=1	=1	=1	=1
!LO:TX:a:t=P:problem=8\ right&colon; global	!LO:TX:a:t=P:problem=8\ right&colon; global	!LO:TX:a:t=P:problem=8\ right&colon; global	!LO:TX:a:t=P:problem=8\ right&colon; global	!
!	!	!LO:TX:a:t=P:problem= dolna kreska pięciolinii dorysowana	!	!
!LO:TX:a:t=andante piano ſemp(er)	!LO:TX:a:t=andante ſemper piano.	!LO:TX:a:t=Andante	!LO:TX:a:t=Andante volti	!
8AA/L	8c\L	8ee\L	(8ee\L	.
8AA/	8c\	8cc\	8cc\	.
8AA/J	8c\J	8a\J	8a\J)	.
=2	=2	=2	=2	=2
8BB/L	8d\L	8r	8r	.
8BB/	8d\	8g#X/L	(8g#X/L	.
8BB/J	8d\J	8b/J	8b/J)	.
=3	=3	=3	=3	=3
8C/L	8e\L	8r	8r	.
8C/	8e\	8a\L	(8a/L	.
8C/J	8e\J	8cc\J	8cc/J)	.
=4	=4	=4	=4	=4
!	!	!LO:TX:a:t=P:problem=mixed beam	!LO:TX:a:t=P:problem=mixed beam	!
8C/L	8e\L	8ee\L	8ee`\L	.
8C/	8e\	8aa\	(8aa\	.
8C/J	8e\J	8a/J	8a/J)	.
=5	=5	=5	=5	=5
8D/L	8f\L	8r	8r	.
8D/	8f\	8ff\L	(8ff\L	.
8D/J	8f\J	8dd\J	8dd\J)	.
=6	=6	=6	=6	=6
8E/L	8g#X\L	8r	8r	.
8E/	8g#\	8b\L	(8b\L	.
8E/J	8g#\J	8dd\J	8dd\J)	.
=7	=7	=7	=7	=7
8F\L	8a\L	8r	8r	.
8F\	8a\	8a\L	(8a\L	.
8F\J	8a\J	8cc\J	8cc\J)	.
=8	=8	=8	=8	=8
!	!	!LO:TX:a:t=P:problem=mixed beam	!LO:TX:a:t=P:problem=mixed beam	!
8F\L	8a\L	8ee\L	8ee\L	.
8F\	8a\	8aa\	8aa\	.
8F\J	8a\J	8a/J	8a/J	.
=9	=9	=9	=9	=9
8D\L	8f\L	8r	8r	.
8D\	8f\	8dd\L	(8ff\L	.
8D\J	8f\J	8b\J	8ee\J)	.
=10	=10	=10	=10	=10
8E/L	8g#X\L	8b/L	8dd\L	.
8E/	8g#\	8a/	8cc\	.
8E/J	8g#\J	8g#X/J	8b\J	.
=11	=11	=11	=11	=11
!	!LO:TX:a:t=P:problem=mixed beam	!	!	!
8AA/L	8a\L	8a/L	4a/	.
8AA/	8A/	8b/	.	.
8AA/J	8A/J	8cc/J	8r	.
=12	=12	=12	=12	=12
!	!	!LO:TX:a:t=P:problem=mixed beam	!LO:TX:a:t=1.	!
8AA/L	8A/L	8ee\L	4.r	.
8AA/	8A/	8aa\	.	.
8AA/J	8A/J	8a/J	.	.
=13	=13	=13	=13	=13
8A\L	8cc\L	8ccc\L	8ccc`\L	.
8A\	8cc\	8bb\	(8bb\	.
8A\J	8cc\J	8aa\J	8aa\J)	.
=14	=14	=14	=14	=14
8A\L	8cc\L	8gg\L	8gg`\L	.
8A\	8cc\	8ff#X\	(8ff#X\	.
8A\J	8cc\J	8ee\J	8ee\J)	.
=15	=15	=15	=15	=15
8B\L	8dd#X\L	8r	8r	.
!	!	!	!LO:SIC:s=8dd#:v	!
8B\	8dd#\	8dd#X\L	(8dd\L	.
!	!	!	!LO:SIC:s=8ff#:v	!
8B\J	8dd#\J	8ff#X\J	8ff\J)	.
!	!LO:LB:g=original	!LO:LB:g=original	!LO:LB:g=original	!
=16	=16	=16	=16	=16
8G\L	8b\L	8r	8r	.
8G\	8b\	8ee\L	(8ee\L	.
8G\J	8b\J	8gg\J	8gg\J)	.
!LO:LB:g=original	!	!	!	!
=17	=17	=17	=17	=17
8A\L	8cc\L	8r	8r	.
8A\	8cc\	8ff#X\L	(8ff#X\L	.
8A\J	8cc\J	8aa\J	8aa\J)	.
=18	=18	=18	=18	=18
!	!LO:TX:a:t=P:problem=t. 18-19 ujęte w repetycję	!	!	!
8B\L	8b\L	8r	8r	.
8B\	8b\	8dd#X\L	(8dd#X\L	.
!	!	!LO:SIC:s=8ff#:v	!	!
8B\J	8b\J	8ff\J	8ff#X\J)	.
=19	=19	=19	=19	=19
8G\L	8b\L	8r	8r	.
8G\	8b\	8ee\L	8ee\L	.
8G\J	8b\J	8gg\J	8gg\J	.
=20	=20	=20	=20	=20
!	!LO:TX:a:t=P:problem=t. 20-21 zapisane powtórką	!	!	!
8G\L	8b\Lyy	8bb\L	8bb\L	.
8G\	8b\yy	8eee\	8eee\	.
8G\J	8b\Jyy	8ee\J	8ee\J	.
=21	=21	=21	=21	=21
8G\L	8b\Lyy	8r	8r	.
8G\	8b\yy	8ee\L	8ee\L	.
8G\J	8b\Jyy	8b\J	8b\J	.
=22	=22	=22	=22	=22
!	!LO:TX:a:t=P:problem=takt ujęty w repetycję	!	!	!
8A\L	8cc\L	8r	8r	.
8A\	8cc\	8cc\L	8cc\L	.
8A\J	8cc\J	8g\J	8g\J	.
=23	=23	=23	=23	=23
!	!LO:TX:a:t=P:problem=takt zapisany powtórką	!	!	!
8A\L	8cc\Lyy	8f#X/L	8f#X/L	.
8A\	8cc\yy	8a/	8a/	.
8A\J	8cc\Jyy	8d#X/J	8d#X/J	.
=24	=24	=24	=24	=24
8G\L	8b\L	8r	4e/	.
8G\	8b\	8e/L	.	.
8G\J	8b\J	8g/J	8r	.
=25	=25	=25	=25	=25
!	!	!LO:TX:a:t=P:problem=mixed beam	!LO:TX:a:t=P:problem=pauza całotaktowa oznaczona kreseczką	!
8G\L	8b\L	8b\L	4.r	.
8G\	8b\	8ee\	.	.
8G\J	8b\J	8e/J	.	.
=26	=26	=26	=26	=26
!LO:TX:a:t=1	!	!LO:TX:a:t=P:problem=brak taktu	!LO:TX:a:t=P:problem=brak taktu	!
4.r	4.r	4.ryy	4.ryy	.
=27	=27	=27	=27	=27
!	!	!	!LO:TX:a:t=1	!
8GG/L	8G/L	8ee`\L	8ee`\L	.
!	!	!LO:TX:a:t=P:problem=16\ right&colon; global	!LO:TX:a:t=P:problem=16\ right&colon; global	!
8GG/	8G/	(16dd\L	(16dd\L	.
.	.	16cc\)	16cc\	.
8GG/J	8G/J	16b\	16b\	.
.	.	16a\JJ	16a\JJ)	.
=28	=28	=28	=28	=28
8AA/L	8A/L	8cc`/L	8cc`/L	.
8AA/	8A/	(16b/L	(16b/L	.
.	.	16a/	16a/	.
8AA/J	8A/J	16g/)	16g/	.
!	!	!LO:SIC:s=16f#:v	!	!
.	.	16f/JJ	16f#X/JJ)	.
=29	=29	=29	=29	=29
8BB/L	8B/L	16a/LL	16a/LL	.
.	.	16g/JJ	16g/JJ	.
8BB/	8B/	8e/L	8g/L	.
!	!	!	!LO:SIC:s=8d#:v	!
8BB/J	8B/J	8d#X/J	8d/J	.
=30	=30	=30	=30	=30
8EE/L	8g\L	8e/L	8e/L	.
8EE/	8g\	8b/	8e/	.
8EE/J	8g\J	8b/J	8e/J	.
!	!	!LO:LB:g=original	!LO:LB:g=original	!
=31	=31	=31	=31	=31
8EE/L	8g\L	8b\L	8e/L	.
8EE/	8g\	8b\	8e/	.
8EE/J	8g\J	8b\J	8e/J	.
=32	=32	=32	=32	=32
!	!LO:TX:a:t=P:problem=4\ right&colon; global	!LO:TX:a:t=P:problem=4\ right&colon; global	!	!
4.EE/	4g\	4b\	4e/	.
.	8r	8r	8r	.
!LO:TX:a:t=[segno]	!LO:TX:a:t=[segno]	!LO:TX:a:t=[segno]	!LO:TX:a:t=[segno]	!
=33	=33	=33	=33	=33
!LO:TX:a:t=P:problem=t. 33-38 ujęte w repetycję	!LO:TX:a:t=P:problem=t. 33-38 ujęte w repetycję	!	!	!
4E/	8E/L	8r	8r	.
.	8E/	8g#X/L	(8g#X/L	.
8r	8E/J	8g#/J	8b/J)	.
!	!LO:LB:g=original	!	!	!
=34	=34	=34	=34	=34
4E/	8E/L	8r	8r	.
.	8E/	8a/L	(8a/L	.
8r	8E/J	8a/J	8cc/J)	.
=35	=35	=35	=35	=35
4E/	8E/L	8r	8r	.
.	8E/	8b/L	(8b\L	.
8r	8E/J	8b/J	8dd\J)	.
!LO:LB:g=original	!	!	!	!
=36	=36	=36	=36	=36
4E/	8E/L	4a/	4cc\	.
.	8E/	.	.	.
8r	8E/J	8g#X/	8b\	.
=37	=37	=37	=37	=37
4E/	8E/L	8r	8r	.
.	8E/	8a/L	(8a\L	.
8r	8E/J	8a/J	8cc\J)	.
=38	=38	=38	=38	=38
4E/	8E/L	8b/L	8r	.
.	8E/	8b/	(8b\L	.
8r	8E/J	8b/J	8dd\J)	.
=39	=39	=39	=39	=39
!LO:TX:a:t=P:problem=t. 39-44 zapiane powtórką	!LO:TX:a:t=P:problem=t. 39-45 zapiane powtórką	!	!	!
4E/yy	8E/Lyy	8r	8r	.
.	8E/yy	8cc/L	(8cc\L	.
8ryy	8E/Jyy	8cc/J	8ee\J)	.
=40	=40	=40	=40	=40
!	!	!	!LO:TX:a:t=P:problem=4\ right&colon; global	!
4E/yy	8E/Lyy	4b/	4dd\	.
.	8E/yy	.	.	.
8ryy	8E/Jyy	8a/	8cc\	.
=41	=41	=41	=41	=41
4E/yy	8E/Lyy	8r	8r	.
.	8E/yy	8b/L	(8b\L	.
8ryy	8E/Jyy	8b/J	8dd\J)	.
=42	=42	=42	=42	=42
4E/yy	8E/Lyy	8r	8r	.
.	8E/yy	8cc/L	(8cc\L	.
8ryy	8E/Jyy	8cc/J	8ee\J)	.
=43	=43	=43	=43	=43
4E/yy	8E/Lyy	8r	8r	.
.	8E/yy	8dd\L	8dd\L	.
8ryy	8E/Jyy	8dd\J	8ff\J	.
=44	=44	=44	=44	=44
4E/yy	8E/Lyy	8dd\L	8ff\L	.
.	8E/yy	8cc\	8ee\	.
8ryy	8E/Jyy	8b\J	8dd\J	.
=45	=45	=45	=45	=45
4E/	8E/L	8a/L	8cc\L	.
.	8E/	8g#X/J	8b\J	.
8r	8E/J	8r	8r	.
!	!	!	!LO:LB:g=original	!
=46	=46	=46	=46	=46
!	!LO:TX:a:t=P:problem=t. 46-47 ujęte w repetycję	!	!	!
4.EE/	4E/	8r	8r	.
.	.	8f/L	(8dd\L	.
.	8r	8e/J	8cc\J)	.
=47	=47	=47	=47	=47
4.EE/	4E/	8r	8r	.
.	.	8e/L	(8cc\L	.
.	8r	8d/J	8b\J)	.
!	!	!LO:LB:g=original	!	!
=48	=48	=48	=48	=48
!	!LO:TX:a:t=P:problem=t. 48-49 zapisane powtórką	!	!	!
4.EE/	4E/yy	8r	8r	.
.	.	8d/L	(8b\L	.
.	8ryy	8c/J	8a\J)	.
=49	=49	=49	=49	=49
4.EE/	4E/yy	8r	8r	.
.	.	8c/L	(8a/L	.
.	8ryy	8B/J	8g#X/J)	.
=50	=50	=50	=50	=50
!	!	!LO:TX:a:t=2.	!	!
!	!	!LO:N:vis=0	!	!
8C/L	8e\L	2.r	8r	.
8C/	8e\	.	(8a\L	.
8C/J	8e\J	.	8cc\J)	.
=51	=51	=51	=51	=51
8C/L	8e\L	.	8ee`\L	.
8C/	8e\	.	(8cc\	.
8C/J	8e\J	.	8a\J)	.
=52	=52	=52	=52	=52
8D/L	8f\L	8r	4.b-X\	.
8D/	8f\	8b-X\L	.	.
8D/J	8f\J	8dd\J	.	.
=53	=53	=53	=53	=53
!	!	!	!LO:SIC:s=4.b-:v	!
8D/L	8f\L	8ff\L	4.b\	.
8D/	8f\	8dd\	.	.
8D/J	8f\J	8b-X\J	.	.
=54	=54	=54	=54	=54
8E/L	8g\L	4.cc#X\	8r	.
8E/	8g\	.	(8cc#X\L	.
8E/J	8g\J	.	8ee\J)	.
=55	=55	=55	=55	=55
!	!	!LO:SIC:s=4.cc#:v	!	!
8E/L	8g\L	4.cc\	8gg`\L	.
8E/	8g\	.	(8ee\	.
8E/J	8g\J	.	8cc#X\J)	.
=56	=56	=56	=56	=56
!	!LO:TX:a:t=P:problem=t. 56-57 ujęte w repetycję	!	!	!
8F\L	8a\L	8r	4.dd\	.
8F\	8a\	8dd\L	.	.
8F\J	8a\J	8ff\J	.	.
=57	=57	=57	=57	=57
8F\L	8a\L	8aa\L	4.dd\	.
8F\	8a\	8ff\	.	.
8F\J	8a\J	8dd\J	.	.
=58	=58	=58	=58	=58
!	!LO:TX:a:t=P:problem=t. 58-59 zapisane powtórką	!	!	!
8F#X\L	8a\Lyy	4.dd#X\	8r	.
8F#\	8a\yy	.	8dd#X\L	.
8F#\J	8a\Jyy	.	8ff#X\J	.
=59	=59	=59	=59	=59
!	!	!LO:SIC:s=4.dd#:v	!	!
8F\L	8a\Lyy	4.dd\	8aa\L	.
8F\	8a\yy	.	8ff\	.
!	!	!	!LO:SIC:s=8dd#:v	!
8F\J	8a\Jyy	.	8dd\J	.
!	!LO:LB:g=original	!	!	!
=60	=60	=60	=60	=60
8G#X\L	8b\L	8r	4.ee\	.
8G#\	8b\	8ee\L	.	.
8G#\J	8b\J	8gg#X\J	.	.
=61	=61	=61	=61	=61
!LO:SIC:s=8G#:v	!	!	!	!
8G\L	8b\L	8bb\L	4.ee\	.
!LO:SIC:s=8G#:v	!	!	!	!
8G\	8b\	8ee\	.	.
!LO:SIC:s=8G#:v	!	!	!	!
8G\J	8b\J	8ddn\J	.	.
!LO:LB:g=original	!	!	!	!
=62	=62	=62	=62	=62
8A\L	8a\L	8r	8r	.
8A\	8a\	8ee\L	8cc\L	.
8A\J	8a\J	8aa\J	8aa\J	.
!	!	!	!LO:LB:g=original	!
=63	=63	=63	=63	=63
!	!	!	!LO:TX:a:t=P:problem=zamazana pauza	!
8C/L	8c\L	8r	8ryy	.
8C/	8c\	8ee\L	8cc\L	.
8C/J	8c\J	8aa\J	8aa\J	.
=64	=64	=64	=64	=64
8D/L	8d/L	8r	8r	.
!	!	!LO:LB:g=original	!	!
8D/	8d/	8dd\L	8b\L	.
!	!	!LO:SIC:s=8gg#:v	!	!
8D/J	8d/J	8aa\J	8gg#X\J	.
=65	=65	=65	=65	=65
8E\L	8e/L	8r	8r	.
8E\	8e/	8dd\L	8b\L	.
8E\J	8e/J	8gg#X\J	8gg#X\J	.
=66	=66	=66	=66	=66
!	!	!LO:TX:a:t=2	!	!
!	!	!LO:N:vis=0	!	!
8F\L	8f\L	2.r	8r	.
8F\	8f\	.	8a\L	.
8F\J	8f\J	.	8dd\J	.
=67	=67	=67	=67	=67
!	!	!	!LO:TX:a:t=P:problem=mixed beam	!
8F\L	8f\L	.	8ee\L	.
8F\	8f\	.	8aa\	.
8F\J	8f\J	.	8a/J	.
=68	=68	=68	=68	=68
4C/	4c\	8r	8r	.
!	!	!	!LO:TX:a:t=P:problem=mixed beam	!
.	.	8ee\L	8ee\L	.
8r	8r	8a\J	8a/J	.
=69	=69	=69	=69	=69
!LO:SIC:s=4D:v	!	!	!	!
4C/	4d\	8r	8r	.
!	!	!	!LO:TX:a:t=P:problem=mixed beam	!
.	.	8ff\L	8ff\L	.
!	!	!LO:SIC:s=8a:v	!	!
8r	8r	8cc\J	8a/J	.
=70	=70	=70	=70	=70
4E/	4e\	8r	8r	.
.	.	8g#X/L	8g#X/L	.
8r	8r	8b/J	8b/J	.
=71	=71	=71	=71	=71
8F\L	8f\L	8r	4a/	.
8F\	8f\	8A/L	.	.
8F\J	8f\J	8c/J	8r	.
=72	=72	=72	=72	=72
*	*	*^	*	*
!	!	!	!	!LO:TX:a:t=2	!
!	!	!	!	!LO:N:vis=0	!
8F\L	8f\L	8e/L	8ryy	2.r	.
!	!	!	!LO:TX:a:t=P:problem=przepełniona miara taktu - błędna długość nuty	!	!
!	!	!	!LO:N:vis=2	!	!
8F\	8f\	8f\ 8g/	4d/	.	.
8F\J	8f\J	8A/J	.	.	.
*	*	*v	*v	*	*
=73	=73	=73	=73	=73
!	!	!LO:TX:a:t=P:problem=pionowa kreska nad pauzą	!	!
4.r;	4.r;	4.r	.	.
=74	=74	=74	=74	=74
8C/L	8e\L	8ee`\L	8ee`\L	.
8C/	8e\	(16dd\L	(16dd\L	.
.	.	16cc\	16cc\	.
8C/J	8e\J	16b\)	16b\)	.
.	.	16a\JJ	16a\JJ	.
=75	=75	=75	=75	=75
!	!LO:SIC:s=8fn:v	!	!	!
8D/L	8f#X\L	8ff`\L	8ff`\L	.
!	!LO:SIC:s=8fn:v	!	!	!
8D/	8f#\	(16ee\L	(16ee\L	.
.	.	16dd\	16dd\	.
!	!LO:SIC:s=8fn:v	!	!	!
8D/J	8f#\J	16cc\)	16cc\)	.
.	.	16b\JJ	16b\JJ	.
=76	=76	=76	=76	=76
!	!	!LO:TX:a:t=P:problem=mixed beam	!LO:TX:a:t=P:problem=mixed beam	!
8E/L	8g#X\L	8ee\L	8ee\L	.
8E/	8g#\	8a/	8a/	.
!	!	!LO:TX:a:t=P:problem=poplamione nuty	!LO:TX:a:t=P:problem=krzyżyk zapisany nietypowo (miejce słabo czytelne)	!
8E/J	8g#\J	8g#X/J	8g#X/J	.
!	!LO:LB:g=original	!	!	!
=77	=77	=77	=77	=77
4AA/	4a\	4a/	4.a/	.
8r	8r	8r	.	.
=78	=78	=78	=78	=78
!	!	!LO:TX:a:t=P:problem=t. 78-79 ujęte w repetycję	!	!
8r	8r	8b\L	8dd\L	.
8F\L	8f\L	8b\	8dd\	.
8E\J	8d\J	8b\J	8dd\J	.
!	!	!	!LO:LB:g=original	!
=79	=79	=79	=79	=79
8r	8r	8b\L	8dd\L	.
8D/L	8d\L	8b\	8dd\	.
8BB/J	8B\J	8b\J	8dd\J	.
!LO:LB:g=original	!	!	!	!
=80	=80	=80	=80	=80
!	!	!LO:TX:a:t=P:problem=t. 80-81 zapisane powtórką	!	!
8r	8r	8b\Lyy	8dd\L	.
8BB/L	8B/L	8b\yy	8dd\	.
8GG#X/J	8G#X/J	8b\Jyy	8dd\J	.
=81	=81	=81	=81	=81
8r	8r	8b\Lyy	8dd\L	.
!LO:SIC:s=8GG#:v	!LO:SIC:s=8G#:v	!	!	!
8GG/L	8G/L	8b\yy	8dd\	.
8EE/J	8E/J	8b\Jyy	8dd\J	.
!	!	!LO:LB:g=original	!	!
=82	=82	=82	=82	=82
!LO:TX:a:t=P:problem=4\ right&colon; global	!	!	!	!
4D\	4d\	8b/L	8dd\L	.
.	.	8a/	8cc\	.
8E\	8e\	8g#X/J	8b\J	.
=83	=83	=83	=83	=83
4F\	4f\	4a/	8a`/L	.
.	.	.	16b/L	.
.	.	.	(16cc/	.
8C/	8c\	8r	16dd/)	.
.	.	.	16ee/JJ	.
=84	=84	=84	=84	=84
!	!	!	!LO:TX:a:t=P:problem=niezrozumiała adnotacja (prawd. dopisek niemuzyczny)	!
!	!	!LO:TX:a:t=P:problem=mixed beam	!LO:TX:a:t=P:problem=mixed beam	!
4D\	4d\	8ff\L	8ff\L	.
.	.	8a/	8a/	.
8E\	8e\	8g#X/J	8g#X/J	.
=85	=85	=85	=85	=85
8A\L	8a\L	8a/L	8a/L	.
8E\	8e\	8e/	8e/	.
8C\J	8c\J	8c/J	8c/J	.
=86	=86	=86	=86	=86
8AA/L	8c\L	8c/L	8A/L	.
!	!	!	!	!LO:DY:a
8AA/	8c\	8c/	8A/	f
8AA/J	8c\J	8c/J	8A/J	.
=87	=87	=87	=87	=87
8AA/L	8c/L	8c/L	8A/L	.
!	!	!	!	!LO:DY:a
8AA/	8c/	8c/	8A/	p
8AA/J	8c/J	8c/J	8A/J	.
=88	=88	=88	=88	=88
4.AA/	4c/	4c/	4A/	.
!	!	!	!LO:TX:b:t=Vertat(ur) Presto Cito	!
.	8r	8r	8r	.
!LO:TX:a:t=[segno]	!LO:TX:a:t=[segno]	!LO:TX:a:t=[segno]	!LO:TX:a:t=[segno]	!
==;;	==	==	==;;	==
*-	*-	*-	*-	*-
!!!system-decoration: [(g1)]
!!!ENC: Anna Matuszewska
!!!END: 2020-11-18
!!!ENC: Kamil Watkowski
!!!END: 2020-06-17
